X:437
T: DIE SCHNEIDER HIELTENS GRINDELFEST
N: E1634
O: Europa, Mitteleuropa, Deutschland, Hessen, Wetterau
R: Staende -, Handwerker - Lied, Schneider
M: 2/4
L: 1/16
K: G
D2 | D2G2G2G2 | F3ED2
D2 | G2G2A2A2 | B4z2
D2 | D2G2G2G2 | F3ED2
D2 | G2G2A2A2 | B4z2
B2 | B3BB2B2 | B4d4 |
A3AA2A2 | A4d3
c | B2B2A2A2 | G4z2
B2 | B3BB2B2 | B4d4 |
A3AA2A2 | A4d3
c | B2B2A2A2 | G4z2

@@@ Tune index: 5121
